X: 28706
T: My Darling Asleep
R: jig
M: 6/8
K: Dminor
|:fdd cAA|BAG AAG|FAA def|1 ,3 gfg eag:|2 ,4 gec d3||
|:FAA BAG|FAA BAG|FAA def|gfg ega|
fdd cAA|BAG AAG|FAA def|gec d3:|

